icons/mobile/24/svg/cloud-24.svg

<svg width="24" height="24" viewBox="0 0 24 24" fill="none" xmlns="http://www.w3.org/2000/svg">
<path fill-rule="evenodd" clip-rule="evenodd" d="M12.7744 4.99902C15.9682 4.99924 18.5977 7.52625 18.5977 10.6924V11.4043C20.5239 11.7844 21.9998 13.4469 22 15.4756C22 17.543 20.4508 19.2953 18.3789 19.583C16.466 19.8483 14.2817 20.0226 11.875 19.9971C10.1082 19.9783 8.46452 19.8539 6.96289 19.668L6.32812 19.585C3.86841 19.245 2 17.1945 2 14.7236C2.00022 11.9915 4.26912 9.81759 7.0166 9.81738H7.01855C7.45014 7.07296 9.88084 4.99902 12.7744 4.99902ZM12.7744 6.74902C10.5023 6.74902 8.7002 8.53665 8.7002 10.6924C8.7 11.1754 8.30824 11.5673 7.8252 11.5674H7.0166C5.19072 11.5676 3.75022 13.0023 3.75 14.7236C3.75 16.2786 4.93131 17.6253 6.56738 17.8516C8.16985 18.0739 9.95491 18.2265 11.8936 18.2471C14.2045 18.2715 16.3019 18.1043 18.1387 17.8496L18.3643 17.8076C19.4719 17.5501 20.25 16.5768 20.25 15.4756C20.2498 14.171 19.1557 13.0732 17.7578 13.0732H17.7227C17.2396 13.0731 16.8478 12.6813 16.8477 12.1982V10.6924C16.8477 8.53678 15.0463 6.74924 12.7744 6.74902Z" fill="black"/>
</svg>

<!-- This Source Code Form is subject to the terms of the Mozilla Public
   - License, v. 2.0. If a copy of the MPL was not distributed with this
   - file, You can obtain one at http://mozilla.org/MPL/2.0/. -->
<svg xmlns="http://www.w3.org/2000/svg" width="24" height="24" fill="none" viewBox="0 0 24 24">
    <path fill="#000" fill-rule="evenodd" d="M12.774 4.999c3.194 0 5.824 2.527 5.824 5.693v.712c1.926.38 3.402 2.043 3.402 4.072 0 2.067-1.55 3.82-3.621 4.107a44 44 0 0 1-11.416.085l-.635-.083C3.868 19.245 2 17.195 2 14.724c0-2.732 2.27-4.906 5.017-4.907h.002C7.45 7.073 9.88 5 12.774 5m0 1.75c-2.272 0-4.074 1.788-4.074 3.943a.875.875 0 0 1-.875.875h-.808c-1.826 0-3.267 1.435-3.267 3.157 0 1.555 1.181 2.901 2.817 3.128a42.2 42.2 0 0 0 11.571-.002l.226-.042c1.108-.258 1.886-1.231 1.886-2.332 0-1.305-1.094-2.403-2.492-2.403h-.035a.875.875 0 0 1-.875-.875v-1.506c0-2.155-1.802-3.943-4.074-3.943" clip-rule="evenodd" />
</svg>
